X: 2342
T: LAMPLIGHTER'S HORNPIPE
%R: hornpipe, reel
B: James Kerr "Merry Melodies" v.2 p.38 #342
Z: 2016 John Chambers <jc:trillian.mit.edu>
M: C
L: 1/8
K: A
|: (ucd) |\
ecec eagf | ecec eagf |\
[1,3 ecec fedc | d2B2B2 :|\
[2,4 efde cABG | E2A2A2 :|
|: (ucd) |\
edcd e2(fe) | dcBc d2(ed) |\
[1,3 cAcA dcBA | G2B2B2 :|\
[2,4 caAd cABG | E2A2A2 :|

%%sep 1 1 500
%%sep 1 1 500

